X:1
T:Which Road Are You Choosing?
T:Which Road Are You Choosing?
T:George Frederick Root
T:George Frederick Root, 1871
T:Public Domain Courtesy of the Cyber Hymnal™
T:Public Domain Courtesy of the Cyber Hymnal™
C:George Frederick Root
Z:Public Domain
Z:Courtesy of the Cyber Hymnal™
%%score 1 2 3
L:1/8
Q:1/4=86
M:6/8
K:Bb
V:1 treble 
V:2 treble 
V:3 bass 
V:1
 F | FFF FBc | d3- d2 d | ccc cdc | B3- B2 F | FFF FBc | d3- d2 d | ccc edc | B3- B2 B | ccc cBc | %10
w: 1.~Which|road are you choos- ing, young|friends? * Which|road are you choos- ing to|take? * Just|stop here and think what de-|pends * Up-|on the de- ci- sion you|make; * You|know that one lead- eth as-|
w: 2.~The|“wit- ness- es” ga- ther a-|round, * And|ear- nest- ly, trem- bling- ly|wait * To|see who a- mong us have|found * The|way to the beau- ti- ful|gate. * The|e- vil ones al- so are|
w: 3.~Oh,|where are you go- ing, young|friends? * Which|road are you choos- ing to|take? * The|Sav- ior in mer- cy des-|cends; * Choose|right- ly for His own dear|sake; * ’Tis|on- ly with Him we can|
 d3- d2 B | GGG GAB | c3- c2 F | FFF FBc | d3- d2 d | ccc cdc | B3- B2 ||"^Refrain" [Fd] | %18
w: tray, * And|ends in des- truc- tion at|last, * And|that in the straight, nar- row|way * You’re|safe when the tri- als are|past. *||
w: here, * And|point to the way which is|broad; * Be-|lov- èd, what- e’er may ap-|pear, * That|way leads to death’s dark a-|bode. *|Then|
w: go; * We|must cling a- lone to His|hand; * But|He will lead past ev- ery|foe, * Safe,|safe to His heav- en- ly|land. *||
 [Fd][Fd][Fd] [Ge][Ge][Ge] | [Fd]3- [Fd]2 [Fd] | [=Ec][EG][EG] [EG][EA][EB] | [Fc]3- [Fc]2 [EF] | %22
w: ||||
w: why are you doubt- ful, young|friends? * Which|road of these two should you|take? * Oh,|
w: ||||
 [DF][DF][DF] [DF][DB][Ec] | [Fd]3- [Fd]2 [Fd] | [Ec][Ec][Ec] [Ec][Fd][Ec] | [DB]3- [DB]2 |] %26
w: ||||
w: think of the life that de-|pends * Up-|on the de- ci- sion you|make. *|
w: ||||
V:2
 z | z [A,CF][A,CF] z [A,CF][A,CF] | ([A,CF][A,CF]) z ([A,CF][A,CF]) z | %3
 z [A,CEF][A,CEF] z [A,CEF][A,CEF] | z ([B,DF][B,DF]) z [B,DF][B,DF] | %5
 z [B,DF][B,DF] z [B,DF][B,DF] | z ([B,DF][B,DF]) z [B,DF][B,DF] | %7
 z [A,CEF][A,CEF] z [A,CEF][A,CEF] | z ([B,DF][B,DF]) z [B,DF][B,DF] | %9
 z [A,CEF][A,CEF] z [A,CEF][A,CEF] | z ([B,DF][B,DF]) z [B,DF][DF] | %11
 z [B,C=E][B,CE] z [A,B,E][A,B,D] | z ([A,CF][A,CF]) z [A,CEF][A,CEF] | %13
 z [B,DF][B,DF] z [B,DF][B,DF] | z ([B,DF][B,DF]) z [B,DF][B,DF] | %15
 z [A,CEF][A,CE] z [A,CEF][A,CE] | z ([B,DF][B,DF] [B,DF]2) || x | x6 | x6 | x6 | x6 | x6 | x6 | %24
 x6 | x5 |] %26
V:3
 z | [B,,,B,,]3 [B,,,B,,]3 | [B,,,B,,]3 [B,,,B,,]3 | [F,,F,]3 [F,,F,]3 | [B,,,B,,]3 [B,,,B,,]3 | %5
 [B,,,B,,]3 [B,,,B,,]3 | [B,,,B,,]3 [B,,,B,,]3 | [F,,F,]3 [F,,F,]3 | [B,,,B,,]3 [B,,,B,,]3 | %9
 [F,,F,]3 [F,,F,]3 | [B,,,B,,]3 [B,,,B,,]3 | [C,,C,]3 [C,,C,]3 | [F,,F,]3 [F,,F,]3 | %13
 [B,,,A,,]3 [B,,,A,,]3 | [B,,,A,,]3 [B,,,A,,]3 | [F,,F,]3 [F,,F,]3 | [B,,,B,,]3- [B,,,B,,]2 || %17
 [B,,B,] | [B,,B,][B,,B,][B,,B,] [B,,B,][B,,B,][B,,B,] | [B,,B,]3- [B,,B,]2 [B,,B,] | %20
 [C,G,][C,C][C,C] [C,C][C,C][C,B,] | [F,A,]3- [F,A,]2 [F,C] | %22
 [B,,B,][B,,B,][B,,B,] [B,,B,][B,,B,][B,,B,] | [B,,B,]3- [B,,B,]2 [B,,B,] | %24
 [F,A,][F,A,][F,A,] [F,A,][F,A,][F,A,] | [B,,B,]3- [B,,B,]2 |] %26

